X:1497
T:Maid of Mount Kisco
O:ireland
Z: id:dc-reel-189
M:C
L:1/8
K:A Dorian
AG|EAA2 BAA2|EAA2 BGAG|EGG2 AGG2|EGG2 EGD2|!
EAA2 BAA2|EAA2 BABd|egg2 afge|dBGA BA:|!
dB|A3B dBAB|G2BG dGBG|A3B dBAB|egfa gedB|!
A3B dBAB|G2BG dGBG|A3B dBAB|gedB A2|]!
Bd|eaa2 bgag|e2dB GABd|eaa2 bgag|e2de g2eg|!
a3f gage|dedB GABd|eAA2 efge|dBGA BA:|!
